X: 21956
T: Kitty Jones'
R: reel
M: 4/4
K: Gmajor
BG~G2 DG~G2|BcdB G2AB|cA~A2 EA~A2|FGAF D2FA|
BG~G2 DG~G2|BcdB G2Bd|ecdB cABG|AGFA G3A:|
Bd~d2 Bd~d2|BddB G2AB|ce~e2 ce~e2|ceec A3z|
Bd~d2 Bd~d2|BddB G2Bd|ecdB cABG|AGFA G3A:|

